; generated by Slic3r 0.9.9-dev on 2013-04-12 at 22:40:33

; layer_height = 0.4
; perimeters = 3
; top_solid_layers = 3
; bottom_solid_layers = 3
; fill_density = 0.4
; perimeter_speed = 30
; infill_speed = 30
; travel_speed = 30
; nozzle_diameter = 0.5
; filament_diameter = 3
; extrusion_multiplier = 1
; perimeters extrusion width = 0.53mm
; infill extrusion width = 0.53mm
; solid infill extrusion width = 0.53mm
; top infill extrusion width = 0.53mm
; first layer extrusion width = 0.70mm

G21 ; set units to millimeters
M190 S100 ; wait for bed temperature to be reached
M104 S230 ; set temperature
G28 ; home all axes
G1 Z5 F5000 ; lift nozzle

M109 S230 ; wait for temperature to be reached
G90 ; use absolute coordinates
G92 E0
M82 ; use absolute distances for extrusion
G1 F1800.000 E-1.00000
G92 E0
G1 Z0.350 F1800.000
G1 X112.553 Y114.353
G1 F1800.000 E1.00000
G1 X114.353 Y112.553 F540.000 E1.08282
G1 X115.073 Y111.933 E1.11373
G1 X115.773 Y111.473 E1.14099
G1 X118.243 Y110.053 E1.23368
G1 X118.883 Y109.763 E1.25654
G1 X119.563 Y109.543 E1.27980
G1 X122.353 Y108.813 E1.37362
G1 X123.033 Y108.713 E1.39599
G1 X123.723 Y108.673 E1.41847
G1 X126.263 Y108.673 E1.50111
G1 X126.953 Y108.713 E1.52360
G1 X127.633 Y108.813 E1.54596
G1 X130.423 Y109.543 E1.63979
G1 X131.103 Y109.763 E1.66304
G1 X131.743 Y110.053 E1.68590
G1 X132.063 Y110.223 E1.69769
G1 X134.563 Y111.683 E1.79189
G1 X134.853 Y111.883 E1.80335
G1 X135.393 Y112.313 E1.82581
G1 X137.443 Y114.353 E1.91990
G1 X137.683 Y114.613 E1.93141
G1 X138.123 Y115.153 E1.95408
G1 X138.503 Y115.733 E1.97664
G1 X139.863 Y118.103 E2.06554
G1 X140.133 Y118.663 E2.08576
G1 X140.433 Y119.533 E2.11571
G1 X141.093 Y121.993 E2.19857
G1 X141.173 Y122.333 E2.20994
G1 X141.283 Y123.023 E2.23267
G1 X141.323 Y123.723 E2.25548
G1 X141.323 Y126.263 E2.33812
G1 X141.283 Y126.963 E2.36093
G1 X141.173 Y127.653 E2.38367
G1 X141.093 Y127.993 E2.39503
G1 X140.473 Y130.303 E2.47285
G1 X140.183 Y131.213 E2.50392
G1 X139.923 Y131.773 E2.52401
G1 X138.503 Y134.253 E2.61699
G1 X138.323 Y134.553 E2.62837
G1 X137.913 Y135.123 E2.65121
G1 X137.443 Y135.643 E2.67402
G1 X135.643 Y137.443 E2.75684
G1 X135.203 Y137.843 E2.77619
G1 X134.963 Y138.033 E2.78614
G1 X134.473 Y138.373 E2.80555
G1 X131.753 Y139.933 E2.90757
G1 X131.113 Y140.213 E2.93029
G1 X130.453 Y140.433 E2.95293
G1 X127.993 Y141.093 E3.03580
G1 X127.653 Y141.173 E3.04716
G1 X126.963 Y141.283 E3.06989
G1 X126.263 Y141.323 E3.09271
G1 X123.723 Y141.323 E3.17534
G1 X123.023 Y141.283 E3.19816
G1 X122.333 Y141.173 E3.22089
G1 X121.993 Y141.093 E3.23225
G1 X119.533 Y140.433 E3.31512
G1 X119.203 Y140.333 E3.32634
G1 X118.553 Y140.083 E3.34900
G1 X117.933 Y139.773 E3.37155
G1 X115.733 Y138.503 E3.45420
G1 X115.153 Y138.123 E3.47676
G1 X114.873 Y137.903 E3.48834
G1 X114.353 Y137.443 E3.51093
G1 X112.553 Y135.643 E3.59375
G1 X112.313 Y135.393 E3.60503
G1 X112.093 Y135.123 E3.61636
G1 X111.883 Y134.853 E3.62749
G1 X111.503 Y134.273 E3.65005
G1 X110.223 Y132.063 E3.73314
G1 X109.903 Y131.423 E3.75642
G1 X109.763 Y131.103 E3.76778
G1 X109.643 Y130.763 E3.77951
G1 X108.893 Y127.963 E3.87382
G1 X108.813 Y127.633 E3.88487
G1 X108.713 Y126.953 E3.90723
G1 X108.673 Y126.263 E3.92972
G1 X108.673 Y123.723 E4.01236
G1 X108.713 Y123.033 E4.03485
G1 X108.753 Y122.693 E4.04599
G1 X108.903 Y122.013 E4.06864
G1 X109.603 Y119.353 E4.15813
G1 X109.813 Y118.763 E4.17851
G1 X110.073 Y118.193 E4.19889
G1 X111.513 Y115.713 E4.29219
G1 X111.883 Y115.143 E4.31430
G1 X112.093 Y114.863 E4.32569
G1 X112.487 Y114.426 E4.34483
G1 F1800.000 E3.34483
G92 E0
G1 X121.289 Y117.667 F1800.000
G1 F1800.000 E1.00000
G1 X128.711 Y117.667 F540.000 E1.24145
G1 X128.711 Y122.088 E1.38530
G1 X127.155 Y122.088 E1.43592
G1 X127.865 Y122.795 E1.46854
G1 X128.339 Y123.617 E1.49940
G1 X128.583 Y124.528 E1.53009
G1 X128.583 Y125.472 E1.56079
G1 X128.339 Y126.383 E1.59149
G1 X127.867 Y127.200 E1.62218
G1 X127.200 Y127.867 E1.65288
G1 X126.383 Y128.339 E1.68357
G1 X125.472 Y128.583 E1.71427
G1 X124.528 Y128.583 E1.74497
G1 X123.617 Y128.339 E1.77566
G1 X122.800 Y127.867 E1.80636
G1 X122.133 Y127.200 E1.83706
G1 X121.661 Y126.383 E1.86775
G1 X121.417 Y125.471 E1.89846
G1 X121.417 Y124.529 E1.92914
G1 X121.661 Y123.617 E1.95985
G1 X122.133 Y122.800 E1.99054
G1 X122.845 Y122.088 E2.02329
G1 X121.289 Y122.088 E2.07389
G1 X121.289 Y117.765 E2.21453
G1 X121.946 Y118.324 F1800.000
G1 X128.054 Y118.324 F540.000 E2.41322
G1 X128.054 Y121.431 E2.51431
G1 X121.946 Y121.431 E2.71301
G1 X121.946 Y118.422 E2.81089
G1 X121.946 Y117.667 F1800.000
G1 F1800.000 E1.81089
G92 E0
G1 X123.867 Y122.274 F1800.000
G1 F1800.000 E1.00000
G1 X124.597 Y122.079 F540.000 E1.02459
G1 X125.395 Y122.076 E1.05054
G1 X126.159 Y122.291 E1.07637
G1 X126.799 Y122.662 E1.10042
G1 X127.341 Y123.202 E1.12532
G1 X127.727 Y123.871 E1.15044
G1 X127.926 Y124.615 E1.17551
G1 X127.926 Y125.385 E1.20057
G1 X127.727 Y126.130 E1.22564
G1 X127.341 Y126.797 E1.25071
G1 X126.797 Y127.341 E1.27578
G1 X126.130 Y127.727 E1.30084
G1 X125.385 Y127.926 E1.32591
G1 X124.615 Y127.926 E1.35098
G1 X123.871 Y127.727 E1.37604
G1 X123.203 Y127.342 E1.40111
G1 X122.659 Y126.797 E1.42618
G1 X122.273 Y126.129 E1.45125
G1 X122.074 Y125.385 E1.47632
G1 X122.074 Y124.615 E1.50138
G1 X122.273 Y123.870 E1.52645
G1 X122.659 Y123.203 E1.55151
G1 X123.208 Y122.656 E1.57676
G1 X123.783 Y122.325 E1.59833
G1 X123.981 Y121.627 F1800.000
G1 X121.406 Y122.745
G1 X121.049 Y123.363 F540.000 E1.62154
G1 X120.760 Y124.442 E1.65789
G1 X120.760 Y125.558 E1.69419
G1 X121.049 Y126.637 E1.73053
G1 X121.607 Y127.604 E1.76685
G1 X122.397 Y128.393 E1.80318
G1 X123.363 Y128.951 E1.83950
G1 X124.442 Y129.240 E1.87583
G1 X125.558 Y129.240 E1.91216
G1 X126.637 Y128.951 E1.94849
G1 X127.604 Y128.393 E1.98481
G1 X128.393 Y127.604 E2.02113
G1 X128.951 Y126.637 E2.05745
G1 X129.240 Y125.558 E2.09378
G1 X129.240 Y124.442 E2.13011
G1 X128.951 Y123.363 E2.16643
G1 X128.594 Y122.745 E2.18966
G1 X129.368 Y122.745 E2.21482
G1 X129.368 Y118.257 E2.36085
G1 X129.927 Y118.579 E2.38186
G1 X131.421 Y120.073 E2.45060
G1 X132.477 Y121.903 E2.51933
G1 X133.024 Y123.944 E2.58807
G1 X133.024 Y126.056 E2.65681
G1 X132.477 Y128.097 E2.72555
G1 X131.421 Y129.927 E2.79429
G1 X129.927 Y131.421 E2.86302
G1 X128.097 Y132.477 E2.93176
G1 X126.056 Y133.024 E3.00050
G1 X123.944 Y133.024 E3.06924
G1 X121.903 Y132.477 E3.13798
G1 X120.073 Y131.421 E3.20672
G1 X118.579 Y129.927 E3.27545
G1 X117.523 Y128.097 E3.34419
G1 X116.976 Y126.056 E3.41293
G1 X116.976 Y123.944 E3.48167
G1 X117.523 Y121.903 E3.55041
G1 X118.579 Y120.073 E3.61914
G1 X120.073 Y118.579 E3.68788
G1 X120.632 Y118.257 E3.70889
G1 X120.632 Y122.745 E3.85492
G1 X121.307 Y122.745 E3.87688
G1 X118.053 Y119.670 F1800.000
G1 X119.670 Y118.053 F540.000 E3.95125
G1 X121.649 Y116.911 E4.02562
G1 X123.857 Y116.319 E4.09998
G1 X126.143 Y116.319 E4.17435
G1 X128.351 Y116.911 E4.24872
G1 X130.330 Y118.053 E4.32309
G1 X131.947 Y119.670 E4.39745
G1 X133.089 Y121.649 E4.47182
G1 X133.681 Y123.857 E4.54619
G1 X133.681 Y126.143 E4.62055
G1 X133.089 Y128.351 E4.69492
G1 X131.947 Y130.330 E4.76929
G1 X130.330 Y131.947 E4.84366
G1 X128.351 Y133.089 E4.91802
G1 X126.143 Y133.681 E4.99239
G1 X123.857 Y133.681 E5.06676
G1 X121.649 Y133.089 E5.14112
G1 X119.670 Y131.946 E5.21549
G1 X118.053 Y130.330 E5.28986
G1 X116.911 Y128.351 E5.36422
G1 X116.319 Y126.143 E5.43859
G1 X116.319 Y123.857 E5.51296
G1 X116.911 Y121.649 E5.58733
G1 X118.004 Y119.755 E5.65849
G1 X117.528 Y119.266 F1800.000
G1 X119.266 Y117.528 F378.000 E5.73848
G1 X121.396 Y116.298 E5.81848
G1 X123.771 Y115.662 E5.89847
G1 X126.229 Y115.662 E5.97847
G1 X128.604 Y116.298 E6.05847
G1 X130.734 Y117.528 E6.13846
G1 X132.472 Y119.266 E6.21846
G1 X133.702 Y121.396 E6.29846
G1 X134.338 Y123.771 E6.37845
G1 X134.338 Y126.229 E6.45845
G1 X133.702 Y128.604 E6.53844
G1 X132.472 Y130.734 E6.61844
G1 X130.734 Y132.472 E6.69844
G1 X128.604 Y133.702 E6.77843
G1 X126.229 Y134.338 E6.85843
G1 X123.771 Y134.338 E6.93842
G1 X121.396 Y133.702 E7.01842
G1 X119.266 Y132.472 E7.09842
G1 X117.528 Y130.734 E7.17841
G1 X116.298 Y128.604 E7.25841
G1 X115.662 Y126.229 E7.33840
G1 X115.662 Y123.771 E7.41840
G1 X116.298 Y121.396 E7.49840
G1 X117.478 Y119.352 E7.57519
G1 X118.175 Y119.380 F1800.000
G1 X120.148 Y119.178
G1 X120.156 Y120.156 F540.000 E7.60842
G1 X119.663 Y119.663 E7.63210
G1 X119.178 Y120.148 E7.65541
G1 X120.156 Y121.126 E7.70241
G1 X120.156 Y122.097 E7.73538
G1 X118.764 Y120.705 E7.80224
G1 X118.409 Y121.320 E7.82637
G1 X120.156 Y123.067 E7.91030
G1 X120.310 Y123.221 F1800.000
G1 X120.534 Y123.445 F540.000 E7.92104
G1 X120.329 Y124.210 E7.94796
G1 X118.054 Y121.935 E8.05725
G1 X117.812 Y122.664 E8.08333
G1 X120.283 Y125.135 E8.20207
G1 X120.461 Y126.283 E8.24152
G1 X117.607 Y123.429 E8.37864
G1 X117.452 Y124.245 E8.40685
G1 X125.755 Y132.548 E8.80577
G1 X124.785 Y132.548 E8.83874
G1 X117.452 Y125.215 E9.19104
G1 X117.523 Y126.256 E9.22647
G1 X123.744 Y132.477 E9.52540
G1 X122.419 Y132.122 E9.57203
G1 X117.878 Y127.581 E9.79021
G1 X118.960 Y129.634 E9.86905
G1 X120.366 Y131.040 E9.93659
G1 X126.571 Y132.393 F1800.000
G1 X123.717 Y129.539 F540.000 E10.07371
G1 X124.865 Y129.717 E10.11316
G1 X127.336 Y132.188 E10.23190
G1 X128.065 Y131.946 E10.25798
G1 X125.790 Y129.671 E10.36727
G1 X126.555 Y129.466 E10.39419
G1 X128.680 Y131.591 E10.49626
G1 X129.295 Y131.236 E10.52040
G1 X127.222 Y129.163 E10.61997
G1 X127.838 Y128.808 E10.64410
G1 X129.852 Y130.822 E10.74088
G1 X130.337 Y130.337 E10.76419
G1 X128.335 Y128.335 E10.86037
G1 X128.808 Y127.838 E10.88368
G1 X130.822 Y129.852 E10.98046
G1 X131.236 Y129.295 E11.00402
G1 X129.163 Y127.222 E11.10360
G1 X129.466 Y126.555 E11.12850
G1 X131.591 Y128.680 E11.23057
G1 X131.946 Y128.065 E11.25471
G1 X129.671 Y125.790 E11.36399
G1 X129.717 Y124.865 E11.39546
G1 X132.188 Y127.336 E11.51420
G1 X132.393 Y126.571 E11.54112
G1 X129.539 Y123.717 E11.67823
G1 X129.844 Y123.052 E11.70310
G1 X132.548 Y125.755 E11.83301
G1 X132.548 Y124.785 E11.86597
G1 X129.844 Y122.081 E11.99587
G1 X129.844 Y121.111 E12.02884
G1 X132.477 Y123.744 E12.15537
G1 X132.122 Y122.419 E12.20199
G1 X129.844 Y120.140 E12.31145
G1 X131.040 Y120.366 E12.35280
G1 X129.844 Y119.170 E12.41025
G1 X122.386 Y117.198 F1800.000
G1 X122.761 Y117.098 F540.000 E12.41671
G1 X122.861 Y117.198 E12.41907
G1 X123.136 Y116.997 E12.42473
G1 X123.337 Y117.198 E12.42946
G1 X123.510 Y116.897 E12.43525
G1 X123.812 Y117.198 E12.44235
G1 X123.885 Y116.796 E12.44915
G1 X124.287 Y117.198 E12.45860
G1 X124.352 Y116.787 E12.46552
G1 X124.762 Y117.198 E12.47519
G1 X124.827 Y116.787 E12.48211
G1 X125.238 Y117.198 E12.49178
G1 X125.302 Y116.787 E12.49870
G1 X125.713 Y117.198 E12.50837
G1 X125.777 Y116.787 E12.51529
G1 X126.188 Y117.198 E12.52496
G1 X126.315 Y116.850 E12.53113
G1 X126.663 Y117.198 E12.53932
G1 X126.965 Y117.024 E12.54511
G1 X127.139 Y117.198 E12.54921
G1 X127.614 Y117.198 E12.55711
M140 S90 ; set bed temperature
G1 F1800.000 E11.55711
G92 E0
G1 Z0.750 F1800.000
G1 X128.504 Y117.873
G1 F1800.000 E1.00000
G1 X128.504 Y121.882 F1800.000 E1.11788
G1 X126.655 Y121.882 E1.17227
G1 X127.700 Y122.923 E1.21564
G1 X128.147 Y123.697 E1.24191
G1 X128.377 Y124.555 E1.26806
G1 X128.377 Y125.445 E1.29421
G1 X128.147 Y126.303 E1.32035
G1 X127.702 Y127.074 E1.34650
G1 X127.074 Y127.702 E1.37265
G1 X126.303 Y128.147 E1.39879
G1 X125.445 Y128.377 E1.42494
G1 X124.555 Y128.377 E1.45109
G1 X123.697 Y128.147 E1.47724
G1 X122.926 Y127.702 E1.50338
G1 X122.298 Y127.074 E1.52953
G1 X121.853 Y126.303 E1.55568
G1 X121.623 Y125.445 E1.58182
G1 X121.623 Y124.555 E1.60797
G1 X121.853 Y123.697 E1.63412
G1 X122.298 Y122.926 E1.66026
G1 X123.376 Y121.882 E1.70442
G1 X121.496 Y121.882 E1.75973
G1 X121.496 Y117.873 E1.87761
G1 X128.427 Y117.873 E2.08142
G1 X127.985 Y118.393 F1800.000
G1 X127.985 Y121.362 F1800.000 E2.16874
G1 X122.015 Y121.362 E2.34428
G1 X122.015 Y118.393 E2.43160
G1 X127.907 Y118.393 E2.60485
G1 X128.504 Y118.393 F1800.000
G1 F1800.000 E1.60485
G92 E0
G1 X126.159 Y122.370 F1800.000
G1 F1800.000 E1.00000
G1 X126.754 Y122.716 F1800.000 E1.02025
G1 X127.286 Y123.244 E1.04228
G1 X127.663 Y123.897 E1.06445
G1 X127.857 Y124.624 E1.08657
G1 X127.857 Y125.376 E1.10870
G1 X127.663 Y126.103 E1.13082
G1 X127.286 Y126.754 E1.15294
G1 X126.754 Y127.286 E1.17507
G1 X126.103 Y127.663 E1.19719
G1 X125.376 Y127.857 E1.21932
G1 X124.624 Y127.857 E1.24144
G1 X123.897 Y127.663 E1.26356
G1 X123.246 Y127.286 E1.28569
G1 X122.714 Y126.754 E1.30781
G1 X122.337 Y126.103 E1.32993
G1 X122.143 Y125.376 E1.35206
G1 X122.143 Y124.624 E1.37418
G1 X122.337 Y123.897 E1.39630
G1 X122.714 Y123.246 E1.41843
G1 X123.251 Y122.712 E1.44069
G1 X123.894 Y122.338 E1.46258
G1 X124.587 Y122.152 E1.48368
G1 X124.795 Y122.142 E1.48980
G1 X125.406 Y122.151 E1.50777
G1 X126.086 Y122.341 E1.52854
G1 X126.587 Y122.076 F1800.000
G1 X127.999 Y122.401
G1 X129.024 Y122.401 F1800.000 E1.55867
G1 X129.024 Y117.661 E1.69806
G1 X130.138 Y118.304 E1.73587
G1 X131.696 Y119.862 E1.80066
G1 X132.797 Y121.770 E1.86545
G1 X133.367 Y123.898 E1.93023
G1 X133.367 Y126.102 E1.99502
G1 X132.797 Y128.230 E2.05980
G1 X131.696 Y130.138 E2.12459
G1 X130.138 Y131.696 E2.18938
G1 X128.230 Y132.797 E2.25416
G1 X126.102 Y133.367 E2.31895
G1 X123.898 Y133.367 E2.38373
G1 X121.770 Y132.797 E2.44852
G1 X119.862 Y131.696 E2.51331
G1 X118.304 Y130.138 E2.57809
G1 X117.203 Y128.230 E2.64288
G1 X116.632 Y126.102 E2.70766
G1 X116.632 Y123.898 E2.77245
G1 X117.203 Y121.770 E2.83724
G1 X118.304 Y119.862 E2.90202
G1 X119.862 Y118.304 E2.96681
G1 X120.976 Y117.661 E3.00462
G1 X120.976 Y122.401 E3.14401
G1 X122.001 Y122.401 E3.17414
G1 X121.369 Y123.496 E3.21130
G1 X121.103 Y124.487 E3.24147
G1 X121.103 Y125.513 E3.27164
G1 X121.369 Y126.504 E3.30181
G1 X121.882 Y127.393 E3.33199
G1 X122.607 Y128.118 E3.36215
G1 X123.496 Y128.631 E3.39233
G1 X124.487 Y128.897 E3.42250
G1 X125.513 Y128.897 E3.45267
G1 X126.504 Y128.631 E3.48284
G1 X127.393 Y128.118 E3.51301
G1 X128.118 Y127.393 E3.54318
G1 X128.631 Y126.504 E3.57335
G1 X128.897 Y125.513 E3.60352
G1 X128.897 Y124.487 E3.63369
G1 X128.631 Y123.496 E3.66386
G1 X128.038 Y122.469 E3.69873
G1 F1800.000 E2.69873
G92 E0
G1 X127.502 Y117.353 F1800.000
G1 F1800.000 E1.00000
G1 X122.498 Y117.353 F1800.000 E1.14713
G1 X122.454 Y117.019 E1.15704
G1 X123.898 Y116.632 E1.20100
G1 X126.102 Y116.632 E1.26579
G1 X127.546 Y117.019 E1.30975
G1 X127.512 Y117.276 E1.31736
G1 X128.430 Y116.719 F1800.000
G1 X130.457 Y117.889 F1800.000 E1.38617
G1 X130.508 Y117.940 E1.38830
G1 X132.111 Y119.543 E1.45498
G1 X133.281 Y121.570 E1.52379
G1 X133.887 Y123.830 E1.59260
G1 X133.887 Y126.170 E1.66141
G1 X133.281 Y128.430 E1.73022
G1 X132.111 Y130.457 E1.79903
G1 X132.060 Y130.508 E1.80115
G1 X130.457 Y132.111 E1.86783
G1 X128.430 Y133.281 E1.93664
G1 X126.170 Y133.887 E2.00545
G1 X123.830 Y133.887 E2.07426
G1 X121.570 Y133.281 E2.14307
G1 X119.543 Y132.111 E2.21188
G1 X119.492 Y132.060 E2.21401
G1 X117.889 Y130.457 E2.28069
G1 X116.719 Y128.430 E2.34950
G1 X116.113 Y126.170 E2.41831
G1 X116.113 Y123.830 E2.48712
G1 X116.719 Y121.570 E2.55593
G1 X117.889 Y119.543 E2.62474
G1 X119.492 Y117.940 E2.69142
G1 X119.543 Y117.889 E2.69355
G1 X121.570 Y116.719 E2.76235
G1 X123.830 Y116.113 E2.83116
G1 X126.170 Y116.113 E2.89997
G1 X128.355 Y116.698 E2.96649
G1 X128.631 Y116.234 F1800.000
G1 X130.776 Y117.473 F1260.000 E3.03932
G1 X130.875 Y117.572 E3.04346
G1 X132.527 Y119.224 E3.11216
G1 X133.766 Y121.369 E3.18499
G1 X134.407 Y123.762 E3.25782
G1 X134.407 Y126.238 E3.33065
G1 X133.766 Y128.631 E3.40349
